X:1
T:Title
%%score { 1 | 2 }
L:1/8
Q:1/4=84
M:6/8
K:Ab
V:1 treble nm="Grand Piano"
V:2 bass 
V:1
 [CE][_C=D][=CE] [Ec][_DB][CA] | FAF [CE]2 [CA] | [CA]AA ecA |[M:5/8] [Ac]3 [GB]2 |[M:1/8] [DE] | %5
w: B.~Frank~Butts * * * * *|||||
[M:3/4] [CE][_C=D] [=CE][Ec] [_DB][CA] | FA F [CE]2 [CA] | e2 ce Ac |[M:5/8] [GB]3 A2 |[M:1/8] e | %10
w: |||||
[M:3/4] [Ge]2 [Ge][Ge] [Gd][GB] | c3 A2 c | [=DB][DF] [DG][DA] [DB][Dc] |[M:5/8] [EB]-[EB]- [EB]3 | %14
w: ||||
[M:1/8] [DE] |[M:3/4] [CE][CA] [Ec][Ee] [Ed][Ec] | [FB]3 [Fd]2 F | Ec AB AG | [CA]6 |] %19
w: |||||
V:2
 [A,,A,][A,,A,][A,,A,] [A,,A,][A,,A,][A,,A,] | [D,A,D][D,F,D][D,A,D] [A,,A,]2 [A,,A,] | %2
 [A,,A,][C,A,C][E,A,C][K:treble] [A,CA][A,EA][K:bass][A,C] |[M:5/8] [E,E]3 [E,E]2 |[M:1/8] [E,G,] | %5
[M:3/4] [A,,A,][A,,A,] [A,,A,] [A,,A,]2 [A,,A,] | [D,A,D][D,F,D] [D,A,D] [A,,A,]2 [A,,A,] | %7
 [A,CA]2 [A,EA][A,CA] [A,C][A,EA] |[M:5/8][K:bass] [E,D]3 [A,C]2 |[M:1/8] [A,CA] | %10
[M:3/4] [E,B,]2 [E,B,][E,B,] [E,B,][E,E] | [A,EA]3 [A,CE]2[K:bass] [A,E] | %12
 [B,,F,][B,,B,] [B,,B,][B,,A,] [B,,A,][B,,A,] |[M:5/8] [E,G,]-[E,G,]- [E,G,]3 |[M:1/8] [E,G,] | %15
[M:3/4] [A,,A,][A,,A,] [A,,A,][C,A,] [B,,G,][A,,A,] | [D,A,]3 [D,A,]2 [D,A,D] | %17
 [E,A,C][E,A,E] [E,A,C][E,G,D] [E,A,C][E,B,D] | [A,,A,]6 |] %19

